svgs/light/stamp.svg

<svg xmlns="http://www.w3.org/2000/svg" viewBox="0 0 512 512"><!--! Font Awesome Pro 6.5.1 by @fontawesome - https://fontawesome.com License - https://fontawesome.com/license (Commercial License) Copyright 2023 Fonticons, Inc. --><path d="M310.4 129.8c6.1-9.8 9.6-21.3 9.6-33.8c0-35.3-28.7-64-64-64s-64 28.7-64 64c0 12.5 3.5 24 9.6 33.8c9.5 15.2 22.4 37.9 22.4 65.1c0 51.4-41.7 93.1-93.1 93.1H112c-44.2 0-80 35.8-80 80c0 8.8 7.2 16 16 16H464c8.8 0 16-7.2 16-16c0-44.2-35.8-80-80-80H381.1c-51.4 0-93.1-41.7-93.1-93.1c0-27.1 12.9-49.9 22.4-65.1zm27.2 16.9c-9.2 14.8-17.5 30.8-17.5 48.2c0 33.8 27.4 61.1 61.1 61.1H400c61.9 0 112 50.1 112 112c0 26.5-21.5 48-48 48H48c-26.5 0-48-21.5-48-48c0-61.9 50.1-112 112-112h18.9c33.8 0 61.1-27.4 61.1-61.1c0-17.4-8.3-33.4-17.5-48.2C165.3 132 160 114.6 160 96c0-53 43-96 96-96s96 43 96 96c0 18.6-5.3 36-14.5 50.7zM64 456v8c0 8.8 7.2 16 16 16H432c8.8 0 16-7.2 16-16v-8c0-8.8 7.2-16 16-16s16 7.2 16 16v8c0 26.5-21.5 48-48 48H80c-26.5 0-48-21.5-48-48v-8c0-8.8 7.2-16 16-16s16 7.2 16 16z"/></svg>

<svg xmlns="http://www.w3.org/2000/svg" viewBox="0 0 512 512"><!--! Font Awesome Pro 6.1.1 by @fontawesome - https://fontawesome.com License - https://fontawesome.com/license (Commercial License) Copyright 2022 Fonticons, Inc. --><path d="M337.5 146.7C328.3 161.5 320 177.5 320 194.9C320 228.6 347.4 256 381.1 256H400C461.9 256 512 306.1 512 368C512 394.5 490.5 416 464 416H48C21.49 416 0 394.5 0 368C0 306.1 50.14 256 112 256H130.9C164.6 256 192 228.6 192 194.9C192 177.5 183.7 161.5 174.5 146.7C165.3 131.1 160 114.6 160 96C160 42.98 202.1 0 256 0C309 0 352 42.98 352 96C352 114.6 346.7 131.1 337.5 146.7V146.7zM320 96C320 60.65 291.3 32 256 32C220.7 32 192 60.65 192 96C192 108.5 195.5 120 201.6 129.8C211.1 144.1 224 167.7 224 194.9C224 246.3 182.3 288 130.9 288H112C67.82 288 32 323.8 32 368C32 376.8 39.16 384 48 384H464C472.8 384 480 376.8 480 368C480 323.8 444.2 288 400 288H381.1C329.7 288 288 246.3 288 194.9C288 167.7 300.9 144.1 310.4 129.8C316.5 120 320 108.5 320 96V96zM64 464C64 472.8 71.16 480 80 480H432C440.8 480 448 472.8 448 464V456C448 447.2 455.2 440 464 440C472.8 440 480 447.2 480 456V464C480 490.5 458.5 512 432 512H80C53.49 512 32 490.5 32 464V456C32 447.2 39.16 440 48 440C56.84 440 64 447.2 64 456V464z"/></svg>
